assets/icon-truck.svg

<svg
  class="icon icon-accordion icon-truck"
  aria-hidden="true"
  focusable="false"
  xmlns="http://www.w3.org/2000/svg"
  width="20"
  height="20"
  viewBox="0 0 20 20"
>
  <path d="M0 3.75156C0 3.47454 0.224196 3.24997 0.500755 3.24997H10.647C10.9235 3.24997 11.1477 3.47454 11.1477 3.75156V5.07505V5.63362V6.10938V13.6616C10.9427 14.0067 10.8813 14.1101 10.5516 14.6648L7.22339 14.6646V13.6614H10.1462V4.25316H1.00151V13.6614H2.6842V14.6646H0.500755C0.224196 14.6646 0 14.44 0 14.163V3.75156Z"/>
  <path d="M18.9985 8.08376L11.1477 6.10938V5.07505L19.6212 7.20603C19.8439 7.26203 20 7.46255 20 7.69253V14.1631C20 14.4401 19.7758 14.6647 19.4992 14.6647H17.3071V13.6615H18.9985V8.08376ZM11.1477 13.6616L13.3442 13.6615L13.3443 14.6647L10.5516 14.6648L11.1477 13.6616Z"/>
  <path d="M7.71269 14.1854C7.71269 15.6018 6.56643 16.75 5.15245 16.75C3.73847 16.75 2.59221 15.6018 2.59221 14.1854C2.59221 12.7691 3.73847 11.6209 5.15245 11.6209C6.56643 11.6209 7.71269 12.7691 7.71269 14.1854ZM5.15245 15.7468C6.01331 15.7468 6.71118 15.0478 6.71118 14.1854C6.71118 13.3231 6.01331 12.6241 5.15245 12.6241C4.29159 12.6241 3.59372 13.3231 3.59372 14.1854C3.59372 15.0478 4.29159 15.7468 5.15245 15.7468Z"/>
  <path d="M17.5196 14.1854C17.5196 15.6018 16.3733 16.75 14.9593 16.75C13.5454 16.75 12.3991 15.6018 12.3991 14.1854C12.3991 12.7691 13.5454 11.6209 14.9593 11.6209C16.3733 11.6209 17.5196 12.7691 17.5196 14.1854ZM14.9593 15.7468C15.8202 15.7468 16.5181 15.0478 16.5181 14.1854C16.5181 13.3231 15.8202 12.6241 14.9593 12.6241C14.0985 12.6241 13.4006 13.3231 13.4006 14.1854C13.4006 15.0478 14.0985 15.7468 14.9593 15.7468Z"/>
</svg>

<svg xmlns="http://www.w3.org/2000/svg" class="icon icon-accordion icon-truck" viewBox="0 0 20 20"><path d="M0 3.752c0-.277.224-.502.5-.502h10.147a.5.5 0 0 1 .5.502v9.91l-.595 1.003H7.223V13.66h2.923V4.253H1.002v9.408h1.682v1.004H.501A.5.5 0 0 1 0 14.163zm18.999 4.332-7.851-1.975V5.075l8.473 2.131a.5.5 0 0 1 .379.487v6.47a.5.5 0 0 1-.5.502h-2.193v-1.003H19zm-7.851 5.578h2.196v1.003h-2.792z"/><path d="M7.713 14.185a2.56 2.56 0 0 1-2.56 2.565 2.56 2.56 0 0 1-2.56-2.565 2.56 2.56 0 0 1 2.56-2.564 2.56 2.56 0 0 1 2.56 2.564m-2.56 1.562a1.56 1.56 0 0 0 1.558-1.562 1.56 1.56 0 0 0-1.559-1.56 1.56 1.56 0 0 0-1.558 1.56 1.56 1.56 0 0 0 1.558 1.562m12.368-1.562a2.56 2.56 0 0 1-2.56 2.565 2.56 2.56 0 0 1-2.56-2.565 2.56 2.56 0 0 1 2.56-2.564 2.56 2.56 0 0 1 2.56 2.564m-2.56 1.562a1.56 1.56 0 0 0 1.558-1.562 1.56 1.56 0 0 0-1.559-1.56 1.56 1.56 0 0 0-1.558 1.56 1.56 1.56 0 0 0 1.558 1.562"/></svg>
